Papirus/32x32/apps/pulsar.svg

<svg id="svg23" width="32" height="32" version="1.1" xmlns="http://www.w3.org/2000/svg">
 <circle id="circle2" cx="16" cy="17" r="14" style="opacity:.2"/>
 <circle id="circle4" cx="16" cy="16" r="14" style="fill:#6a1b9a"/>
 <path id="path6" d="M 16,2 A 14,14 0 0 0 2,16 14,14 0 0 0 2.0351562,16.5 14,14 0 0 1 16,3 14,14 0 0 1 29.980469,16.279297 14,14 0 0 0 30,16 14,14 0 0 0 16,2 Z" style="fill:#ffffff;opacity:.2"/>
 <path id="path8" d="m26.279297 6.4980469-6.462891 5.4140621-0.55664 1.431641c-0.08401-0.03157-0.176974-0.052734-0.271485-0.052734-0.178521 0-0.357625 0.074159-0.49414 0.210937-0.273031 0.273556-0.273031 0.726454 0 1 0.136515 0.136778 0.314884 0.208985 0.503906 0.208985 0.17852 0 0.35689-0.072211 0.503906-0.208985 0.210024-0.210424 0.263215-0.517019 0.158203-0.769531l1.427735-0.556641 5.402343-6.441406a14 14 0 0 0-0.210937-0.2363281zm-14.416016 0.5019531c-1.67341 0.0093807-3.1676254 0.5326905-4.2480466 1.609375-1.4750443 1.474147-1.9569283 3.743557-1.3710938 6.388672 0.153202 0.674323 0.3719304 1.351791 0.6503906 2.025391-1.1655037 3.055438-1.2254779 5.900711 0.0195313 7.478515l0.6054687-0.722656c-0.8213332-1.490467-0.8226751-3.51407-0.109375-5.646485 0.5693603 1.103141 1.295786 2.179816 2.1601563 3.189454l0.5761715-0.689454c-0.9605652-1.150668-1.7394627-2.379621-2.2968746-3.625 0.7314093-1.642398 1.8661046-3.304507 3.3632816-4.800781 1.465895-1.465001 3.115371-2.6145669 4.794921-3.3574216 1.223657 0.5484145 2.458199 1.3209146 3.626954 2.3007816l0.691406-0.576172c-1.027552-0.8750544-2.111618-1.5939638-3.203125-2.1542971 0.360041-0.1193041 0.719846-0.2213713 1.078125-0.3007813 1.799347-0.40773 3.390698-0.2621822 4.59375 0.3964844l0.720703-0.6074219c-0.985325-0.6253567-2.197057-0.9338261-3.5625-0.90625-0.620656 0.012528-1.274456 0.0944981-1.951172 0.2480469-0.671158 0.1499781-1.346604 0.3667747-2.017578 0.6425781-1.409972-0.5963459-2.819553-0.8998742-4.121094-0.8925781zm-0.041015 0.8769531c0.957329-0.00998 1.99407 0.1711431 3.05664 0.5292969-1.513883 0.7782227-2.979278 1.852746-4.292968 3.171875-1.3448937 1.34407-2.4109356 2.822989-3.1738286 4.316406-0.1236999-0.365808-0.2277187-0.731857-0.3105469-1.095703-0.5230657-2.331455-0.1244989-4.307911 1.1308594-5.5624999 0.9062124-0.9056548 2.1595431-1.3444843 3.5898441-1.359375zm13.273437 1.6113281-0.607422 0.7207028c0.502142 0.920052 0.701011 2.070783 0.585938 3.367188 0.261532 0.418199 0.501711 0.825941 0.710937 1.24414 0.439377-2.090987 0.19976-3.941525-0.689453-5.3320308zm-9.119141 1.5117188c-3.300653 0-5.976562 2.697729-5.976562 6.023438 0 1.165726 0.329739 2.23835 0.908203 3.164062l0.328125-0.125c0.05671-0.342865 0.203215-0.65062 0.441406-0.890625 0.04537-0.0457 0.103445-0.092674 0.160157-0.126953-0.294903-0.617145-0.476563-1.301763-0.476563-2.033203 0-2.571429 2.074902-4.664063 4.626953-4.664063 0.725918 0 1.407041 0.171891 2.019531 0.480469 0.04537-0.05715 0.079631-0.114455 0.125-0.160156 0.238193-0.240016 0.532399-0.387872 0.861329-0.433594l0.125-0.332031c-0.91874-0.571423-1.985649-0.902344-3.142579-0.902344zm6.451172 1.666016-0.574218 0.689453c0.980954 1.168647 1.753931 2.404382 2.302734 3.628906l-0.023438 0.052734c-0.753217 1.672789-1.902736 3.324201-3.335937 4.746094-2.102723 2.101444-4.582177 3.554671-6.988281 4.087891-1.799346 0.40774-3.390698 0.260912-4.5937502-0.408203l-0.7207032 0.607421c0.9519808 0.616862 2.2106074 0.929688 3.5078124 0.929688 0.669524 0 1.271613-0.094427 2.003906-0.261719 2.573487-0.574993 5.210628-2.111658 7.417969-4.328125 1.304647-1.303838 2.391905-2.776679 3.175781-4.298828 0.894108 2.650901 0.680856 5.135205-0.832031 6.640625-1.140287 1.1396-2.930611 1.568933-5.001953 1.234375-0.38707 0.240456-0.78411 0.459551-1.181641 0.658203 0.878752 0.230008 1.716659 0.355469 2.511719 0.355469 1.736579 0 3.231772-0.542979 4.298828-1.609375 2.761789-2.770584 1.830665-8.26033-1.966797-12.724609zm-1.324218 1.144531-0.328125 0.126953c-0.06805 0.342854-0.214936 0.650599-0.453125 0.890625-0.04537 0.04572-0.103444 0.092653-0.160157 0.126953 0.294902 0.617124 0.476563 1.301763 0.476563 2.033203 0 2.571418-2.074899 4.664063-4.626953 4.664063-0.725916 0-1.407039-0.171902-2.019531-0.480469-0.04537 0.05714-0.079632 0.114444-0.125 0.160156-0.238194 0.240015-0.532398 0.387882-0.861329 0.433594l-0.125 0.332031c0.918739 0.571413 1.985647 0.902344 3.142579 0.902344 3.300653 0 5.976562-2.697719 5.976562-6.023438 0-1.165705-0.329362-2.240303-0.896484-3.166015zm-5.103516 0.189453a2.9999062 3 0 0 0-3 3 2.9999062 3 0 0 0 3 3 2.9999062 3 0 0 0 3-3 2.9999062 3 0 0 0-3-3zm-2.998047 5.289062c-0.178521 0-0.356889 0.072211-0.503906 0.208985-0.210023 0.210423-0.263215 0.517019-0.158203 0.769531l-1.427735 0.556641-4.4863278 5.349609a14 14 0 0 0 0.3964844 0.396484l5.3398434-4.49414 0.556641-1.429688c0.08401 0.03156 0.178928 0.052735 0.273438 0.052735 0.17852 0 0.355671-0.074161 0.492187-0.210938 0.273031-0.273556 0.273031-0.726454 0-1-0.126015-0.136778-0.303903-0.199218-0.482422-0.199219zm-0.638672 3.539063-0.689453 0.576172c0.606759 0.522749 1.245234 0.993216 1.904297 1.421875 0.251073-0.08363 0.774454-0.293771 0.994141-0.429688-0.815983-0.470464-1.45577-0.94105-2.208985-1.568359z" style="opacity:.2"/>
 <path id="ellipse10" class="st1" transform="matrix(.10501208 0 0 .10501208 108.89888 169.67992)" d="m-781.10855-1568.1998-67.19837 56.2994-5.30073 13.6331c-0.79999-0.3006-1.68526-0.5022-2.58526-0.5022-1.7 0-3.40556 0.7062-4.70556 2.0087-2.6 2.605-2.6 6.9178 0 9.5227 1.3 1.3025 2.99855 1.9901 4.79855 1.9901 1.7 0 3.39856-0.6876 4.79856-1.9901 1.99999-2.0038 2.50652-4.9234 1.50652-7.328l13.59591-5.3008 56.29932-67.1239-1.20894-1.209zm-65.89643 9.5413c-5.91034 0.1193-12.13626 0.8999-18.58045 2.3621-6.39125 1.4282-12.82332 3.4927-19.21282 6.1191-30.68977-12.9802-61.40618-11.4016-79.69694 6.8259-14.04644 14.0379-18.63527 35.6488-13.05653 60.8375 1.4589 6.4214 3.54178 12.8727 6.19348 19.2872-11.09877 29.0961-11.66989 56.1907 0.18599 71.2157l5.76571-6.8816c-7.82133-14.1933-7.83411-33.4635-1.04155-53.7699 5.42186 10.5049 12.33939 20.7578 20.57055 30.3723l5.48672-6.5655c-9.1472-10.9575-16.5644-22.6604-21.87248-34.5198 6.96501-15.6401 17.77037-31.4679 32.02757-45.7165 13.95932-13.9508 29.66677-24.8978 45.66066-31.9718 11.65255 5.2224 23.40871 12.5787 34.53844 21.9097l6.58407-5.4867c-9.7851-8.3329-20.10833-15.1788-30.50245-20.5147 3.42857-1.1361 6.85489-2.1081 10.26668-2.8643 17.13469-3.8827 32.28864-2.4967 43.74497 3.7756l6.86305-5.7843c-9.38298-5.9551-20.92194-8.8926-33.92467-8.63zm-77.42785 8.3324c9.11638-0.095 18.98895 1.6298 29.10751 5.0404-14.41629 7.4108-28.3708 17.6431-40.88071 30.2048-12.80705 12.7992-22.95864 26.8825-30.22346 41.1039-1.17796-3.4835-2.1685-6.9692-2.95725-10.434-4.98101-22.2018-1.18558-41.023 10.76885-52.9701 8.62961-8.6243 20.56471-12.8032 34.18506-12.945zm126.39915 15.3442-5.78431 6.8631c4.78176 8.7614 6.67553 19.7194 5.57972 32.0647 2.4905 3.9824 4.77765 7.8652 6.77005 11.8476 4.18406-19.9119 1.90227-37.534-6.56546-50.7754zm-86.83897 14.3957c-31.43122 0-56.9131 25.6897-56.9131 57.3595 0 11.1009 3.14001 21.3151 8.64856 30.1304l3.12464-1.1903c0.54005-3.265 1.93515-6.1957 4.20339-8.4812 0.43204-0.4352 0.98506-0.8825 1.52512-1.2089-2.80828-5.8769-4.53817-12.3963-4.53817-19.3616 0-24.487 19.75867-44.4146 44.06115-44.4146 6.91271 0 13.39884 1.6369 19.23142 4.5754 0.43205-0.5442 0.75829-1.0899 1.19034-1.5251 2.26824-2.2856 5.06987-3.6936 8.20218-4.129l1.19034-3.1618c-8.74891-5.4415-18.90875-8.5928-29.92587-8.5928zm61.43266 15.865-5.46812 6.5655c9.34135 11.1287 16.70218 22.8962 21.92828 34.557l-0.22318 0.5022c-7.17268 15.9295-18.11921 31.6554-31.76718 45.1957-20.02368 20.0115-43.63474 33.8501-66.54741 38.9278-17.13468 3.8828-32.28862 2.4846-43.74496-3.8872l-6.86305 5.7843c9.06545 5.8742 21.05097 8.8531 33.40389 8.8531 6.3757 0 12.10921-0.8992 19.08263-2.4923 24.5066-5.4755 49.6193-20.1086 70.63919-41.2154 12.42379-12.4161 22.77742-26.4416 30.24206-40.9366 8.51434 25.2438 6.4836 48.9011-7.9232 63.2368-10.85863 10.8521-27.90735 14.9405-47.63217 11.7546-3.68595 2.2898-7.46685 4.3762-11.25242 6.2679 8.36811 2.1903 16.34724 3.385 23.91838 3.385 16.53696 0 30.77523-5.1706 40.93651-15.3256 26.29975-26.3835 17.43292-78.6607-18.72925-121.1728zm-12.61015 10.899-3.12464 1.209c-0.64806 3.2649-2.04676 6.1954-4.31498 8.4811-0.43205 0.4354-0.98506 0.8824-1.52512 1.209 2.80827 5.8767 4.53816 12.3963 4.53816 19.3616 0 24.4869-19.75865 44.4145-44.06115 44.4145-6.91269 0-13.39882-1.6369-19.23142-4.5753-0.43205 0.5441-0.75831 1.0898-1.19033 1.5251-2.26825 2.2856-5.06987 3.6937-8.20219 4.129l-1.19034 3.1618c8.7489 5.4414 18.90874 8.5928 29.92588 8.5928 31.43121 0 56.91309-25.6896 56.91309-57.3595 0-11.1007-3.13641-21.3338-8.53696-30.1491zm-48.59932 1.8041a28.567249 28.568142 0 0 0-28.56814 28.5682 28.567249 28.568142 0 0 0 28.56814 28.5681 28.567249 28.568142 0 0 0 28.56814-28.5681 28.567249 28.568142 0 0 0-28.56814-28.5682zm-28.54954 50.3663c-1.7 0-3.39856 0.6876-4.79856 1.9901-1.99999 2.0038-2.50652 4.9234-1.50652 7.328l-13.59591 5.3007-56.29932 67.124 1.19033 1.2089 67.01238-56.4109 5.30073-13.6145c0.8 0.3005 1.70387 0.5022 2.60387 0.5022 1.7 0 3.38696-0.7062 4.68696-2.0087 2.6-2.605 2.6-6.9178 0-9.5227-1.2-1.3025-2.89397-1.8971-4.59396-1.8971zm-6.08189 33.7014-6.56547 5.4868c5.77799 4.978 11.858 9.4581 18.13408 13.5401 2.39089-0.7964 7.37489-2.7975 9.46691-4.0918-7.77038-4.4801-13.86286-8.9614-21.03552-14.9351z" style="fill:#ffffff"/>
</svg>

<svg xmlns="http://www.w3.org/2000/svg" width="32" height="32" version="1.1">
 <circle style="opacity:0.2" cx="16" cy="17" r="14"/>
 <circle style="fill:#6a1b9a" cx="16" cy="16" r="14"/>
 <path style="opacity:0.1;fill:#ffffff" d="M 16,2 A 14,14 0 0 0 2,16 14,14 0 0 0 2.0352,16.5 14,14 0 0 1 16,3 14,14 0 0 1 29.98,16.279 14,14 0 0 0 30,16 14,14 0 0 0 16,2 Z"/>
 <path style="opacity:0.2" d="M 26.279,6.498 19.816,11.912 19.26,13.344 C 19.176,13.312 19.083,13.291 18.988,13.291 18.81,13.291 18.631,13.365 18.494,13.502 18.221,13.776 18.221,14.228 18.494,14.502 18.631,14.639 18.809,14.711 18.998,14.711 19.177,14.711 19.355,14.639 19.502,14.502 19.712,14.292 19.765,13.985 19.66,13.732 L 21.088,13.176 26.49,6.7344 A 14,14 0 0 0 26.279,6.498 Z M 11.863,7 C 10.19,7.0094 8.6957,7.5327 7.6152,8.6094 6.1402,10.084 5.6583,12.353 6.2441,14.998 6.3973,15.672 6.6161,16.35 6.8945,17.023 5.729,20.079 5.6691,22.924 6.9141,24.502 L 7.5195,23.779 C 6.6982,22.289 6.6969,20.265 7.4102,18.133 7.9795,19.236 8.7059,20.313 9.5703,21.322 L 10.146,20.633 C 9.1859,19.482 8.407,18.253 7.8496,17.008 8.581,15.365 9.7157,13.703 11.213,12.207 12.679,10.742 14.328,9.5925 16.008,8.8496 17.231,9.398 18.466,10.171 19.635,11.15 L 20.326,10.574 C 19.299,9.6992 18.215,8.9803 17.123,8.4199 17.483,8.3006 17.843,8.1986 18.201,8.1191 20.001,7.7114 21.592,7.857 22.795,8.5156 L 23.516,7.9082 C 22.53,7.2828 21.319,6.9744 19.953,7.002 19.332,7.0145 18.679,7.0965 18.002,7.25 17.331,7.4 16.655,7.6168 15.984,7.8926 14.574,7.2962 13.165,6.9927 11.863,7 Z M 11.822,7.877 C 12.78,7.867 13.816,8.0481 14.879,8.4062 13.365,9.1845 11.9,10.259 10.586,11.578 9.241,12.922 8.175,14.401 7.4121,15.895 7.2884,15.529 7.1844,15.163 7.1016,14.799 6.5785,12.467 6.9771,10.491 8.2324,9.2363 9.1386,8.3307 10.392,7.8918 11.822,7.877 Z M 25.096,9.4883 24.488,10.209 C 24.99,11.129 25.189,12.28 25.074,13.576 25.336,13.994 25.576,14.402 25.785,14.82 26.225,12.729 25.985,10.879 25.096,9.4883 Z M 15.977,11 C 12.676,11 10,13.698 10,17.023 10,18.189 10.33,19.262 10.908,20.187 L 11.236,20.062 C 11.293,19.72 11.44,19.412 11.678,19.172 11.723,19.126 11.781,19.079 11.838,19.045 11.543,18.428 11.361,17.743 11.361,17.012 11.361,14.44 13.436,12.348 15.988,12.348 16.714,12.348 17.395,12.52 18.008,12.828 18.053,12.771 18.087,12.714 18.133,12.668 18.371,12.428 18.665,12.28 18.994,12.234 L 19.119,11.902 C 18.2,11.331 17.133,11 15.977,11 Z M 22.428,12.666 21.854,13.355 C 22.834,14.524 23.607,15.76 24.156,16.984 L 24.133,17.037 C 23.38,18.71 22.23,20.361 20.797,21.783 18.694,23.885 16.215,25.338 13.809,25.871 12.009,26.279 10.418,26.132 9.2148,25.463 L 8.4941,26.07 C 9.4461,26.687 10.705,27 12.002,27 12.671,27 13.274,26.906 14.006,26.738 16.579,26.163 19.216,24.627 21.424,22.41 22.728,21.106 23.816,19.633 24.6,18.111 25.494,20.762 25.28,23.247 23.768,24.752 22.627,25.892 20.837,26.321 18.766,25.986 18.379,26.227 17.982,26.446 17.584,26.645 18.463,26.875 19.301,27 20.096,27 21.832,27 23.327,26.457 24.395,25.391 27.156,22.62 26.225,17.13 22.428,12.666 Z M 21.104,13.811 20.775,13.938 C 20.707,14.28 20.56,14.588 20.322,14.828 20.277,14.874 20.219,14.921 20.162,14.955 20.457,15.572 20.639,16.257 20.639,16.988 20.639,19.56 18.564,21.652 16.012,21.652 15.286,21.652 14.605,21.48 13.992,21.172 13.947,21.229 13.913,21.286 13.867,21.332 13.629,21.572 13.335,21.72 13.006,21.766 L 12.881,22.098 C 13.8,22.669 14.867,23 16.023,23 19.324,23 22,20.302 22,16.977 22,15.811 21.671,14.736 21.104,13.811 Z M 16,14 A 2.9999,3 0 0 0 13,17 2.9999,3 0 0 0 16,20 2.9999,3 0 0 0 19,17 2.9999,3 0 0 0 16,14 Z M 13.002,19.289 C 12.823,19.289 12.645,19.361 12.498,19.498 12.288,19.708 12.235,20.015 12.34,20.268 L 10.912,20.824 6.4258,26.174 A 14,14 0 0 0 6.8223,26.57 L 12.162,22.076 12.719,20.646 C 12.803,20.678 12.898,20.699 12.992,20.699 13.171,20.699 13.348,20.625 13.484,20.488 13.757,20.215 13.757,19.762 13.484,19.488 13.358,19.352 13.18,19.289 13.002,19.289 Z M 12.363,22.828 11.674,23.404 C 12.281,23.927 12.919,24.398 13.578,24.826 13.829,24.743 14.353,24.532 14.572,24.396 13.756,23.926 13.116,23.455 12.363,22.828 Z"/>
 <path style="fill:#ffffff" d="M 26.876,5.0033 19.819,10.915 19.262,12.344 C 19.178,12.312 19.086,12.291 18.991,12.291 18.813,12.291 18.633,12.365 18.497,12.501 18.224,12.774 18.224,13.236 18.497,13.509 18.633,13.646 18.812,13.719 19.001,13.719 19.179,13.719 19.358,13.646 19.505,13.509 19.715,13.299 19.769,12.984 19.664,12.732 L 21.091,12.176 27.003,5.1293 Z M 19.957,6.0009 C 19.335,6.0219 18.682,6.0954 18.004,6.2529 17.333,6.4 16.658,6.6205 15.987,6.8935 12.764,5.5284 9.5395,5.6964 7.6179,7.6076 6.1435,9.0882 5.6615,11.356 6.2475,14.003 6.4008,14.675 6.6192,15.357 6.8975,16.029 5.7319,19.085 5.672,21.931 6.9174,23.506 L 7.5223,22.782 C 6.7011,21.29 6.7001,19.264 7.4131,17.132 7.9822,18.235 8.7089,19.316 9.5731,20.324 L 10.15,19.631 C 9.1888,18.487 8.4096,17.258 7.8531,16.008 8.5839,14.37 9.7191,12.711 11.215,11.209 12.681,9.7498 14.331,8.5947 16.01,7.8491 17.235,8.4056 18.469,9.1722 19.637,10.149 L 20.329,9.5818 C 19.301,8.6997 18.218,7.9856 17.125,7.4185 17.486,7.303 17.846,7.198 18.204,7.1245 20.004,6.715 21.595,6.862 22.798,7.5236 L 23.518,6.9145 C 22.533,6.2844 21.322,5.9799 19.957,6.0009 Z M 11.826,6.883 C 12.782,6.8725 13.82,7.051 14.881,7.408 13.368,8.1851 11.902,9.2667 10.589,10.579 9.2445,11.923 8.1786,13.404 7.4152,14.895 7.2913,14.528 7.1873,14.171 7.1044,13.803 6.5814,11.472 6.9804,9.4977 8.2353,8.2376 9.1416,7.3345 10.395,6.8935 11.826,6.883 Z M 25.099,8.4896 24.491,9.2142 C 24.993,10.128 25.192,11.283 25.077,12.575 25.338,12.995 25.579,13.404 25.788,13.824 26.228,11.734 25.987,9.8863 25.099,8.4896 Z M 15.98,10.002 C 12.679,10.002 10.003,12.701 10.003,16.029 10.003,17.195 10.332,18.266 10.911,19.19 L 11.24,19.064 C 11.296,18.718 11.442,18.413 11.681,18.172 11.726,18.13 11.785,18.077 11.841,18.046 11.546,17.426 11.365,16.743 11.365,16.019 11.365,13.446 13.44,11.346 15.991,11.346 16.717,11.346 17.398,11.524 18.011,11.829 18.056,11.776 18.091,11.713 18.136,11.671 18.374,11.43 18.668,11.283 18.997,11.241 L 19.122,10.905 C 18.203,10.338 17.136,10.002 15.98,10.002 Z M 22.431,11.671 21.856,12.354 C 22.837,13.53 23.61,14.759 24.159,15.987 L 24.136,16.04 C 23.382,17.71 22.233,19.369 20.8,20.786 18.697,22.887 16.218,24.336 13.811,24.871 12.013,25.281 10.421,25.134 9.2182,24.462 L 8.4968,25.071 C 9.4492,25.69 10.708,26.005 12.005,26.005 12.674,26.005 13.277,25.911 14.009,25.743 16.583,25.165 19.219,23.632 21.427,21.416 22.731,20.114 23.819,18.634 24.602,17.111 25.497,19.768 25.284,22.246 23.77,23.758 22.63,24.892 20.84,25.323 18.769,24.987 18.381,25.228 17.984,25.449 17.586,25.648 18.465,25.879 19.303,26.005 20.098,26.005 21.835,26.005 23.331,25.459 24.397,24.399 27.159,21.626 26.228,16.134 22.431,11.671 Z M 21.106,12.816 20.779,12.942 C 20.711,13.289 20.563,13.593 20.325,13.835 20.28,13.877 20.222,13.929 20.165,13.961 20.46,14.58 20.641,15.263 20.641,15.987 20.641,18.56 18.566,20.66 16.014,20.66 15.289,20.66 14.607,20.482 13.995,20.177 13.95,20.23 13.915,20.293 13.87,20.335 13.632,20.576 13.338,20.723 13.009,20.765 L 12.884,21.101 C 13.803,21.668 14.87,22.004 16.026,22.004 19.326,22.004 22.003,19.306 22.003,15.977 22.003,14.811 21.673,13.74 21.106,12.816 Z M 16.003,13.005 A 2.9998,2.9999 0 0 0 13.003,16.008 2.9998,2.9999 0 0 0 16.003,19.001 2.9998,2.9999 0 0 0 19.003,16.008 2.9998,2.9999 0 0 0 16.003,13.005 Z M 13.005,18.287 C 12.826,18.287 12.648,18.361 12.501,18.497 12.291,18.707 12.238,19.022 12.343,19.274 L 10.915,19.831 5.0031,26.877 5.1281,27.003 12.165,21.08 12.721,19.652 C 12.805,19.684 12.901,19.705 12.995,19.705 13.174,19.705 13.35,19.631 13.487,19.495 13.76,19.222 13.76,18.77 13.487,18.487 13.361,18.35 13.183,18.287 13.005,18.287 Z M 12.366,21.826 11.676,22.403 C 12.283,22.929 12.922,23.401 13.581,23.832 13.832,23.748 14.355,23.538 14.575,23.401 13.759,22.929 13.119,22.456 12.366,21.826 Z"/>
</svg>
